X: 1
Q: "Stately but moving"
M: 3/4
L: 1/8
K: G
V: 1
|:\
"G"[G4B,4] D2 | [G2-B,2] [G2G,2][D2D2] |\
"G"[G2B,2] [GD2]A [B2G2] | [G4B,4] D2 |\
"G"[G2B,2] [GD2]A [G2B,2] | "D"[A2F2] [AF][BG] [A2F2] |\
"G"[B2G2D2] "D"[c2A2D2] "G"[B2G2D2] | "D"[A4F4D4] z2 :|
|:\
"G"[BG]>[cA] [d2B2] [d2B2] | "C"[ec]>[dB] "(Am)"[c2A2E2] "(Em)"[B2G2E2] |\
"D"[AF]>[BG] [c2A2F2] [c2A2F2] | "G"[dB]>[cA] [B2G2D2] "Bm"[A2F2D2] |\
"C"[GE][AF] [G2E2] "(Em)"[G2E2] | "D7"[c2A2F2D2] [A2F2] "G"[B2G2-] |\
[BG][cA] "D"[A3F3]G |[1 "G   (D7)"[G6D6B,6] :|[2 "G"[G6D6B,6] |]
V: 2 clef=bass middle=d
|:\
g4 z2 | G4 z2 | g4 z2 | g2 d2 B2 |\
G2 B2G2 | d2 D2 d2 | g2 f2 g2 | d2 f2 d2 :|
|: G2 g2 g2 | c'2 c2 c'2  | d'2 c'2 d'2 | b2 B2 b2 |\
c'2 c2 B2 | A2 d2 g2 | G2 d2 D2 |[1 G2 "(D7)"dc BA :|[2 G6 |]
